src/svg/12/online_vkmobile_12.svg

<?xml version="1.0" encoding="UTF-8"?>
<svg width="9px" height="13px" viewBox="0 0 9 13" version="1.1" xmlns="http://www.w3.org/2000/svg" xmlns:xlink="http://www.w3.org/1999/xlink">
    <!-- Generator: Sketch 50.2 (55047) - http://www.bohemiancoding.com/sketch -->
    <title>online_vkmobile_12</title>
    <desc>Created with Sketch.</desc>
    <defs></defs>
    <g id="Page-2" stroke="none" stroke-width="1" fill="none" fill-rule="evenodd">
        <g id="online_vkmobile_12">
            <rect id="Mask" x="0" y="0" width="8" height="12"></rect>
            <path d="M2.51664434,10.7453194 C2.17477331,12.1220197 2.6880594,12.407225 3.60628789,11.4021429 L7.46337026,6.97077321 C8.3557754,5.88166774 8.13225647,5.0066278 6.84710784,4.78787199 L4.98739958,4.4435092 C4.87878896,4.42339773 4.80704622,4.31904786 4.82715769,4.21043724 C4.82782188,4.20685031 4.82858409,4.20328222 4.82944345,4.19973698 L5.54509333,1.24736824 C5.88792346,-0.138073759 5.31651667,-0.388975073 4.45940649,0.592832579 C3.22787395,1.98124191 2.29198711,3.03007572 1.65174594,3.73933403 C1.42852951,3.98661291 1.06922997,4.37258486 0.573847314,4.8972499 C-0.511839531,6.10185007 0.0595672555,6.9754635 1.31533816,7.19421931 L3.0926463,7.51278143 C3.2013706,7.53226902 3.27371124,7.63620528 3.25422366,7.74492957 C3.2534729,7.74911816 3.25258866,7.75328171 3.25157228,7.75741388 L2.51664434,10.7453194 Z" id="Mask" fill="currentColor"></path>
        </g>
    </g>
</svg>

<svg xmlns="http://www.w3.org/2000/svg" width="9" height="13" fill="none" viewBox="0 0 9 13"><path fill="currentColor" d="M2.5166 10.7453c-.3418 1.3767.1715 1.6619 1.0897.6568l3.857-4.4313c.8925-1.0891.669-1.9642-.6162-2.183l-1.8597-.3443a.2008.2008 0 0 1-.158-.2438l.7157-2.9523C5.8879-.1381 5.3165-.389 4.4594.5928 3.228 1.9812 2.292 3.0301 1.6518 3.7393c-.2233.2473-.5826.6333-1.078 1.158-1.0856 1.2045-.5142 2.0782.7415 2.297l1.7773.3185a.201.201 0 0 1 .159.2446l-.735 2.9879Z"/></svg>
